X: 19457
T: Jackson's Dear Whiskey
R: jig
M: 6/8
K: Dmajor
|:E|DFA d2 f|edc d2 e|dcB AGF|EDB, B,2 D|
DF/G/A def|e2 c d2 e|dcB AGF|AFD D2:|
|:g|abg fag|fed efg|fed BAB|gBB B2 g|
aba f2 g|fed e2 g|ff/e/d BAF|AFD D2:|

